X: 7777
T:Schottische
R:Schottische
O:Sweden
M:4/4
K:ADor
E|\
A>^GAB c>Bcd| e>def g2b2| b>a f<g e4| {f}e>d Bc A4-|\
M:2/4
A6::\
M:4/4
E|\
c2c2 c2d>c| B2G2 B2c>B| \
A>=GAc e>cAc| c>BB=G E3E|\
c2c2 c2d>c| B2G2 B2c>B| A>=GAc e>cAc| c>BB=G A4-|\
M:2/4
A6:|
